src/assets/images/ranks/solo_bronze_2.svg

<svg height="240" viewBox="0 0 160 240" width="160" xmlns="http://www.w3.org/2000/svg" xmlns:xlink="http://www.w3.org/1999/xlink"><defs><circle id="a" cx="57" cy="57" r="57"/><mask id="b" fill="#fff"><use fill="#fff" fill-rule="evenodd" xlink:href="#a"/></mask></defs><g fill="none" fill-rule="evenodd"><g transform="translate(17 43)"><g fill="#6f472f"><path d="m34 120h58v36l-29 19.440402-29-19.440402z"/><path d="m12 11.2148438c12-7.47656255 28.8333333-11.2148438 50.5-11.2148438s38.5 3.73828125 50.5 11.2148438l-10 43h-81z"/><circle cx="63" cy="83" r="63"/></g><g transform="translate(6 26)"><use fill="#3d2719" xlink:href="#a"/><path d="m52.3080603 116v-38.8944923c-5.7958086-1.2265305-9.3348752-2.4092122-10.6171998-3.5480451-7.3063175-6.4887434-7.6716333-12.6650639-7.6898991-25.3967512l-.0009614-2.0657444c0-21.0718427 7.3863025-29.1025169 7.6817546-29.4153151l.0091059-.0095528c-1.3439169 16.2767862-1.8988934 27.0139247-1.6649296 32.2114152.5745965 12.7646243 3.1903338 16.9368831 3.7645149 17.7064638l.0391719.0514196c.0469552.060269.0724741.0878087.0724741.0878087 2.2903045 2.1865447 3.8370413 3.3154536 4.6402106 3.3867267.9436518.0837396 2.0494908-.4057052 3.317517-1.4683344.7359576.2425213 1.472267-3.6236217 2.2089281-11.598429-.2286354-14.3664377.7484487-29.0488276 2.9312525-44.0471697l.2465111 1.7291758c2.0096694 14.3981136 2.9045832 28.5041115 2.6847414 42.3179939.7366611 7.9748073 1.4729705 11.8409503 2.2089281 11.598429 1.2680262 1.0626292 2.3738652 1.552074 3.317517 1.4683344.8031693-.0712731 2.3499061-1.200182 4.6402106-3.3867267 0 0 .0255189-.0275397.0724741-.0878087l.0391719-.0514196c.5741811-.7695807 3.1899184-4.9418395 3.7645149-17.7064638.2339638-5.1974905-.3210127-15.934629-1.6649296-32.2114152l.0091059.0095528c.2954521.3127982 7.6817546 8.3434724 7.6817546 29.4153151 0 .176852 0 .3525064-.000015.526979l-.0009464 1.5387654c-.0182658 12.7316873-.3835816 18.9080078-7.6898991 25.3967512-1.2823246 1.1388329-4.8213912 2.3215146-10.6171998 3.5480451v38.8944923z" fill="#ffa672" mask="url(#b)"/></g></g><g fill="#ffa672" transform="translate(44 13)"><path d="m57 0 15 21-15 21-15-21z"/><path d="m15 0 15 21-15 21-15-21z"/></g></g></svg>

<?xml version="1.0" encoding="UTF-8"?>
<svg width="160px" height="240px" viewBox="0 0 160 240" version="1.1" xmlns="http://www.w3.org/2000/svg" xmlns:xlink="http://www.w3.org/1999/xlink">
    <title>solo_bronze_2</title>
    <defs>
        <circle id="path-1" cx="57" cy="57" r="57"></circle>
    </defs>
    <g id="solo_bronze_2" stroke="none" stroke-width="1" fill="none" fill-rule="evenodd">
        <g id="Group-10" transform="translate(17.000000, 43.000000)">
            <polygon id="Rectangle-Copy-68" fill="#6F472F" points="34 120 92 120 92 156 63 175.440402 34 156"></polygon>
            <path d="M12,11.2148438 C24,3.73828125 40.8333333,0 62.5,0 C84.1666667,0 101,3.73828125 113,11.2148438 L103,54.2148438 L22,54.2148438 L12,11.2148438 Z" id="Rectangle-Copy-73" fill="#6F472F"></path>
            <circle id="Oval-Copy-12" fill="#6F472F" cx="63" cy="83" r="63"></circle>
            <g id="Group-5" transform="translate(6.000000, 26.000000)">
                <mask id="mask-2" fill="white">
                    <use xlink:href="#path-1"></use>
                </mask>
                <use id="Oval-Copy-19" fill="#3D2719" xlink:href="#path-1"></use>
                <path d="M52.3080603,116 L52.3080603,77.1055077 C46.5122517,75.8789772 42.9731851,74.6962955 41.6908605,73.5574626 C34.384543,67.0687192 34.0192272,60.8923987 34.0009614,48.1607114 L34,46.094967 C34,25.0231243 41.3863025,16.9924501 41.6817546,16.6796519 L41.6908605,16.6700991 C40.3469436,32.9468853 39.7919671,43.6840238 40.0259309,48.8815143 C40.6005274,61.6461386 43.2162647,65.8183974 43.7904458,66.5879781 L43.8296177,66.6393977 C43.8765729,66.6996667 43.9020918,66.7272064 43.9020918,66.7272064 C46.1923963,68.9137511 47.7391331,70.04266 48.5423024,70.1139331 C49.4859542,70.1976727 50.5917932,69.7082279 51.8598194,68.6455987 C52.595777,68.88812 53.3320864,65.021977 54.0687475,57.0471697 C53.8401121,42.680732 54.8171962,27.9983421 57,13 L57.2465111,14.7291758 C59.2561805,29.1272894 60.1510943,43.2332873 59.9312525,57.0471697 C60.6679136,65.021977 61.404223,68.88812 62.1401806,68.6455987 C63.4082068,69.7082279 64.5140458,70.1976727 65.4576976,70.1139331 C66.2608669,70.04266 67.8076037,68.9137511 70.0979082,66.7272064 C70.0979082,66.7272064 70.1234271,66.6996667 70.1703823,66.6393977 L70.2095542,66.5879781 C70.7837353,65.8183974 73.3994726,61.6461386 73.9740691,48.8815143 C74.2080329,43.6840238 73.6530564,32.9468853 72.3091395,16.6700991 L72.3182454,16.6796519 C72.6136975,16.9924501 80,25.0231243 80,46.094967 C80,46.271819 80,46.4474734 79.999985,46.621946 L79.9990386,48.1607114 C79.9807728,60.8923987 79.615457,67.0687192 72.3091395,73.5574626 C71.0268149,74.6962955 67.4877483,75.8789772 61.6919397,77.1055077 L61.6919397,116 L52.3080603,116 Z" id="Combined-Shape" fill="#FFA672" mask="url(#mask-2)"></path>
            </g>
        </g>
        <g id="Group-3-Copy-11" transform="translate(44.000000, 13.000000)" fill="#FFA672">
            <polygon id="Polygon-Copy-43" points="57 0 72 21 57 42 42 21"></polygon>
            <polygon id="Polygon-Copy-48" points="15 0 30 21 15 42 0 21"></polygon>
        </g>
    </g>
</svg>
